img/features/features-icon3.svg

<svg width="70" height="70" viewBox="0 0 70 70" fill="none" xmlns="http://www.w3.org/2000/svg">
<rect width="70" height="70" rx="15" fill="#FFCD1D" fill-opacity="0.24"/>
<path d="M36.4063 45.9167C35.9032 45.9162 35.4206 45.7179 35.0625 45.3646L28.3854 38.6771C28.2141 38.5068 28.1073 38.2822 28.0833 38.0417L27.1667 28.3021C27.1526 28.1496 27.1724 27.9958 27.2247 27.8517C27.2769 27.7077 27.3602 27.577 27.4688 27.4688C27.5769 27.3603 27.7076 27.2769 27.8517 27.2247C27.9957 27.1725 28.1495 27.1527 28.3021 27.1667L38.0417 28.0834C38.2821 28.1074 38.5067 28.2141 38.6771 28.3855L45.3646 35.0626C45.7189 35.4179 45.9179 35.8993 45.9179 36.4011C45.9179 36.9029 45.7189 37.3843 45.3646 37.7396L37.7396 45.3646C37.3853 45.7173 36.9061 45.9157 36.4063 45.9167ZM30.1563 37.4688L36.4063 43.7188L43.75 36.3751L37.5 30.1251L29.3646 29.3646L30.1563 37.4688Z" fill="#FFC700"/>
<path d="M33.9375 35.5C34.8004 35.5 35.5 34.8004 35.5 33.9375C35.5 33.0746 34.8004 32.375 33.9375 32.375C33.0746 32.375 32.375 33.0746 32.375 33.9375C32.375 34.8004 33.0746 35.5 33.9375 35.5Z" fill="#FFC700"/>
</svg>

<svg width="70" height="70" fill="none" xmlns="http://www.w3.org/2000/svg"><rect width="70" height="70" rx="15" fill="#FFCD1D" fill-opacity=".24"/><path d="M36.406 45.917c-.503 0-.985-.2-1.343-.552l-6.678-6.688a1.042 1.042 0 01-.302-.635l-.916-9.74a1.04 1.04 0 01.302-.833 1.041 1.041 0 01.833-.302l9.74.916c.24.024.465.131.635.303l6.688 6.677a1.896 1.896 0 010 2.677l-7.625 7.625a1.895 1.895 0 01-1.334.552zm-6.25-8.448l6.25 6.25 7.344-7.344-6.25-6.25-8.135-.76.791 8.104z" fill="#FFC700"/><path d="M33.938 35.5a1.563 1.563 0 100-3.125 1.563 1.563 0 000 3.125z" fill="#FFC700"/></svg>
